X: 174
T: Gori More
O: Serbia
F: http://www.youtube.com/watch?v=m8VUcym5rQA
F: http://www.youtube.com/watch?v=ribwGQ7-ZnA
F: http://www.youtube.com/watch?v=ECgs5odksl0
M: 4/4
L: 1/8
K: Am
Q: 1/4=144
ABcB cBA2|BAG2 A2 A2|ABcB cBA2|BAG2|A2 A2::
Aeed edc2|dcBG A2 A2|Aeed edc2|dcBG A2 A2:|



